packages/foundations/assets/icons/functional/images/communication/speech_bubble_question_mark_20.svg

<svg width="20" height="20" viewBox="0 0 20 20" fill="none" xmlns="http://www.w3.org/2000/svg">
<g clip-path="url(#clip0_185_505)">
<path fill-rule="evenodd" clip-rule="evenodd" d="M15.4117 2C16.9215 2 18 3.13216 18 4.49859V12.5019C18 13.8683 16.8823 15.0005 15.4902 15.0005H6.84319C6.54904 15.0005 6.29415 15.0785 6.11766 15.2737L3.70595 17.7137C3.07851 18.3384 2 17.8699 2 16.9915V4.49859C2 3.13216 3.13734 2 4.52946 2H15.4117ZM16 4H4V14.6L4.72662 13.9155C5.25696 13.407 5.94436 13.0392 6.67098 13H16V4ZM10 10.5C10.4975 10.5 10.875 10.8812 10.875 11.3663C10.875 11.8515 10.4975 12.25 10 12.25C9.50247 12.25 9.125 11.8515 9.125 11.3663C9.125 10.8812 9.50247 10.5 10 10.5ZM10.1943 5C11.2957 5 12.1492 5.59173 12.1492 6.66958C12.1492 7.49985 11.7349 7.95448 11.3621 8.28356C10.9892 8.61264 10.776 8.76737 10.7797 8.97616V9.76537H9.23168V8.97616C9.23168 8.35231 9.54156 8.03966 9.86776 7.80208L10.2866 7.50908C10.475 7.3641 10.6128 7.20584 10.6128 6.96436C10.6128 6.74526 10.4995 6.54801 10.0657 6.54801C9.69352 6.54801 9.26294 6.69322 8.92889 6.87833L8.4 5.50563C8.73032 5.23854 9.49628 5 10.1943 5Z" fill="#1A1C1F"/>
</g>
<defs>
<clipPath id="clip0_185_505">
<rect width="20" height="20" fill="white"/>
</clipPath>
</defs>
</svg>

<svg xmlns="http://www.w3.org/2000/svg" width="20" height="20" fill="none"><g clip-path="url(#a)"><path fill="#1A1C1F" fill-rule="evenodd" d="M15.412 2C16.922 2 18 3.132 18 4.499v8.003A2.51 2.51 0 0 1 15.49 15H6.843c-.294 0-.549.078-.725.273l-2.412 2.44C3.079 18.338 2 17.87 2 16.99V4.5C2 3.132 3.137 2 4.53 2zM16 4H4v10.6l.727-.684c.53-.509 1.217-.877 1.944-.916H16zm-6 6.5c.498 0 .875.381.875.866a.87.87 0 0 1-.875.884.87.87 0 0 1-.875-.884c0-.485.377-.866.875-.866m.194-5.5c1.102 0 1.955.592 1.955 1.67 0 .83-.414 1.284-.787 1.614-.373.329-.586.483-.582.692v.79H9.232v-.79c0-.624.31-.936.636-1.174l.419-.293c.188-.145.326-.303.326-.545 0-.219-.114-.416-.547-.416-.372 0-.803.145-1.137.33L8.4 5.506C8.73 5.239 9.496 5 10.194 5" clip-rule="evenodd"/></g><defs><clipPath id="a"><path fill="#fff" d="M0 0h20v20H0z"/></clipPath></defs></svg>
